suite-common/icons/assets/icons/search.svg

<svg xmlns="http://www.w3.org/2000/svg" xml:space="preserve" fill="none" viewBox="0 0 24 24">
  <path fill="currentColor" fill-rule="evenodd" d="M10.2 2.028c-3.441.259-6.434 2.522-7.657 5.788-.636 1.697-.71 3.73-.201 5.487a8.8 8.8 0 0 0 2.155 3.728 8.5 8.5 0 0 0 2.483 1.808c1.299.633 2.447.897 3.9.897 1.799 0 3.403-.48 4.866-1.456.261-.175.516-.348.567-.385.092-.068.094-.066 2.12 1.955 1.949 1.945 2.035 2.025 2.244 2.086.271.08.336.08.606 0 .298-.089.564-.355.653-.653.08-.27.08-.335 0-.606-.061-.209-.141-.295-2.088-2.246l-2.024-2.029.098-.131a9.1 9.1 0 0 0 1.744-4.152c.096-.627.097-1.847 0-2.479q-.44-2.883-2.424-4.935A8.93 8.93 0 0 0 10.2 2.028m1.366 2.014a6.83 6.83 0 0 1 5.015 3.018c2.299 3.436 1.053 8.134-2.641 9.957a6.6 6.6 0 0 1-2.549.71c-1.651.143-3.395-.383-4.731-1.427a6.87 6.87 0 0 1-2.155-7.992 6.83 6.83 0 0 1 3.803-3.803 6.84 6.84 0 0 1 3.258-.463"/>
</svg>

<svg xmlns="http://www.w3.org/2000/svg" xml:space="preserve" fill="none" viewBox="0 0 24 24"><path d="M10.200 2.028 C 6.759 2.287,3.766 4.550,2.543 7.816 C 1.907 9.513,1.833 11.546,2.342 13.303 C 2.757 14.735,3.465 15.960,4.497 17.031 C 5.237 17.800,6.024 18.373,6.980 18.839 C 8.279 19.472,9.427 19.736,10.880 19.736 C 12.679 19.736,14.283 19.256,15.746 18.280 C 16.007 18.105,16.262 17.932,16.313 17.895 C 16.405 17.827,16.407 17.829,18.433 19.850 C 20.382 21.795,20.468 21.875,20.677 21.936 C 20.948 22.016,21.013 22.016,21.283 21.936 C 21.581 21.847,21.847 21.581,21.936 21.283 C 22.016 21.013,22.016 20.948,21.936 20.677 C 21.875 20.468,21.795 20.382,19.848 18.431 L 17.824 16.402 17.922 16.271 C 18.845 15.045,19.428 13.657,19.666 12.119 C 19.762 11.492,19.763 10.272,19.666 9.640 C 19.372 7.717,18.565 6.074,17.242 4.705 C 15.423 2.824,12.810 1.831,10.200 2.028 M11.566 4.042 C 13.619 4.252,15.432 5.343,16.581 7.060 C 18.880 10.496,17.634 15.194,13.940 17.017 C 13.084 17.440,12.350 17.644,11.391 17.727 C 9.740 17.870,7.996 17.344,6.660 16.300 C 4.235 14.404,3.361 11.162,4.505 8.308 C 5.202 6.571,6.571 5.202,8.308 4.505 C 9.353 4.086,10.458 3.929,11.566 4.042 " fill="currentColor" stroke="none" fill-rule="evenodd"></path></svg>
